svgs/regular/wind.svg

<svg xmlns="http://www.w3.org/2000/svg" viewBox="0 0 512 512"><!--! Font Awesome Pro 6.1.1 by @fontawesome - https://fontawesome.com License - https://fontawesome.com/license (Commercial License) Copyright 2022 Fonticons, Inc. --><path d="M24 184h332C406.7 184 448 142.7 448 92S406.7 0 356 0H320c-13.25 0-24 10.75-24 24S306.8 48 320 48h36c24.25 0 44 19.75 44 44S380.3 136 356 136H24C10.75 136 0 146.8 0 160S10.75 184 24 184zM164 328H24C10.75 328 0 338.8 0 352s10.75 24 24 24h140c24.25 0 44 19.75 44 44S188.3 464 164 464H128c-13.25 0-24 10.75-24 24S114.8 512 128 512h36C214.7 512 256 470.7 256 420S214.7 328 164 328zM420 232H24C10.75 232 0 242.8 0 256s10.75 24 24 24h396c24.25 0 44 19.75 44 44S444.3 368 420 368H384c-13.25 0-24 10.75-24 24S370.8 416 384 416h36C470.7 416 512 374.7 512 324S470.7 232 420 232z"/></svg>

<svg xmlns="http://www.w3.org/2000/svg" viewBox="0 0 512 512"><!--! Font Awesome Pro 6.5.1 by @fontawesome - https://fontawesome.com License - https://fontawesome.com/license (Commercial License) Copyright 2023 Fonticons, Inc. --><path d="M288 24c0 13.3 10.7 24 24 24h44c24.3 0 44 19.7 44 44s-19.7 44-44 44H24c-13.3 0-24 10.7-24 24s10.7 24 24 24H356c50.8 0 92-41.2 92-92s-41.2-92-92-92H312c-13.3 0-24 10.7-24 24zm64 368c0 13.3 10.7 24 24 24h44c50.8 0 92-41.2 92-92s-41.2-92-92-92H24c-13.3 0-24 10.7-24 24s10.7 24 24 24H420c24.3 0 44 19.7 44 44s-19.7 44-44 44H376c-13.3 0-24 10.7-24 24zM120 512h44c50.8 0 92-41.2 92-92s-41.2-92-92-92H24c-13.3 0-24 10.7-24 24s10.7 24 24 24H164c24.3 0 44 19.7 44 44s-19.7 44-44 44H120c-13.3 0-24 10.7-24 24s10.7 24 24 24z"/></svg>
